X:19
T:Gracious Fair Lady, The
T:An Fhinne-bhean mhodhamhuil
R:air
H:Song air from the Goodman Manuscripts (1860s)
Z:id:hn-air-19
M:C
L:1/8
K:G
GA | B2 B2 c2 BA | Bdef g2 fg | dcAG GABc | d6 GA |
B2 B2 c2 BA | Bdef g2 fg | efde BdAB | G6 :|
|: G2 | g2 fg a2 d2 | egfa gfed | B2 AG GABc | d6 GA |
B2 B2 c2 BA | Bdef g2 fg | efde BdAB | G6 :|
<end>
<start>
